svgs/regular/person-snowmobiling.svg

<svg xmlns="http://www.w3.org/2000/svg" viewBox="0 0 640 512"><!--! Font Awesome Pro 6.4.2 by @fontawesome - https://fontawesome.com License - https://fontawesome.com/license (Commercial License) Copyright 2023 Fonticons, Inc. --><path d="M240 0a48 48 0 1 1 0 96 48 48 0 1 1 0-96zm99.7 75.4c11.4-6.8 26.1-3.1 32.9 8.2l46.8 78.1 138.9 69.4c10.8 5.4 17.7 16.5 17.7 28.6v59.1c0 10.7-5.3 20.7-14.2 26.6L492 392l54 72h20.1l33-33c9.4-9.4 24.6-9.4 33.9 0s9.4 24.6 0 33.9l-40 40c-4.5 4.5-10.6 7-17 7H440c-13.3 0-24-10.7-24-24s10.7-24 24-24h46l-48-64H313.3c4.3 9.8 6.7 20.6 6.7 32c0 44.2-35.8 80-80 80H80c-44.2 0-80-35.8-80-80c0-26.2 12.6-49.4 32-64l8-16 31.2-62.3C76.6 278.8 87.7 272 99.8 272H288l24-32H280c-7.6 0-14.7-3.6-19.2-9.6l-33.4-44.5c-4.7-6.2-12-9.9-19.8-9.9c-9.8 0-18.6 5.7-22.6 14.7l-19.1 43.1c-5.4 12.1-19.6 17.6-31.7 12.2s-17.6-19.6-12.2-31.7l19.1-43.1c11.7-26.3 37.7-43.2 66.4-43.2c22.9 0 44.4 10.8 58.2 29.1L292 192h56l18.7-24.9-35.3-58.8c-6.8-11.4-3.1-26.1 8.2-32.9zM80 400c-17.7 0-32 14.3-32 32s14.3 32 32 32H240c17.7 0 32-14.3 32-32s-14.3-32-32-32H80zm160-48H465.5L528 310.3V269.7L398.4 204.8l-72 96L312 320H288 109.7l-16 32H240z"/></svg>

<svg xmlns="http://www.w3.org/2000/svg" viewBox="0 0 640 512"><!--! Font Awesome Pro 6.1.1 by @fontawesome - https://fontawesome.com License - https://fontawesome.com/license (Commercial License) Copyright 2022 Fonticons, Inc. --><path d="M192 48C192 21.49 213.5 0 240 0C266.5 0 288 21.49 288 48C288 74.51 266.5 96 240 96C213.5 96 192 74.51 192 48zM339.7 75.42C351 68.6 365.8 72.29 372.6 83.65L419.4 161.7L558.3 231.2C569.2 236.6 576 247.7 576 259.8V318.9C576 329.6 570.7 339.6 561.8 345.5L492 392L546 464H566.1L599 431C608.4 421.7 623.6 421.7 632.1 431C642.3 440.4 642.3 455.6 632.1 464.1L592.1 504.1C588.5 509.5 582.4 512 576 512H440C426.7 512 416 501.3 416 488C416 474.7 426.7 464 440 464H486L438 400H313.3C317.6 409.8 320 420.6 320 432C320 476.2 284.2 512 240 512H80C35.82 512 0 476.2 0 432C0 405.8 12.57 382.6 32 367.1L71.16 289.7C76.58 278.8 87.66 272 99.78 272H288L312 240H280C272.4 240 265.3 236.4 260.8 230.4L227.4 185.9C222.7 179.7 215.4 176 207.6 176C197.9 176 189 181.7 185.1 190.7L165.9 233.7C160.5 245.9 146.4 251.3 134.3 245.9C122.1 240.5 116.7 226.4 122.1 214.3L141.2 171.2C152.9 144.9 178.9 128 207.6 128C230.5 128 252.1 138.8 265.8 157.1L292 192H348L366.7 167.1L331.4 108.3C324.6 96.98 328.3 82.24 339.7 75.42L339.7 75.42zM48 432C48 449.7 62.33 464 80 464H240C257.7 464 272 449.7 272 432C272 414.3 257.7 400 240 400H80C62.33 400 48 414.3 48 432zM465.5 352L528 310.3V269.7L398.4 204.8L312 320H109.7L93.67 352H465.5z"/></svg>
